X:390
T:Will's Way
R:polka 32 march
M:4/4
L:1/8
Q:1/4=180
C:Will Ward
S:Judy Tarry
R:polka 32
K:D
|:FG.A2A2A2|BA.B2A4|DEFGA2B2|=c2.B2B2A2|
FG.A2A2A2|BA.B2A4|DEFGF2E2|D4D4:|!
|:.d2D2AGFE|.d2D2AGFE|DEFGA2B2|=c2.B2B2A2|
.d2D2AGFE|.d2D2AGFE|DEFGF2E2|1D4D4:|2D8|]

